markets/XAU.svg

<svg width="42" height="42" viewBox="0 0 42 42" fill="none" xmlns="http://www.w3.org/2000/svg">
<path d="M21 42C32.598 42 42 32.598 42 21C42 9.40202 32.598 0 21 0C9.40202 0 0 9.40202 0 21C0 32.598 9.40202 42 21 42Z" fill="#06061B"/>
<g style="mix-blend-mode:multiply" opacity="0.4">
<g style="mix-blend-mode:multiply" opacity="0.4">
<path d="M5.87684 18.2717L4.47998 23.0189L12.9138 28.045L12.5229 21.9574L5.87684 18.2717Z" fill="#FB8E2F"/>
</g>
<g style="mix-blend-mode:multiply" opacity="0.4">
<path d="M19.8387 10.2853L26.3172 14.0265L12.5229 21.9574L5.87683 18.2717L19.8387 10.2853Z" fill="#FB8E2F"/>
</g>
<g style="mix-blend-mode:multiply" opacity="0.4">
<path d="M27.9928 19.109L26.3172 14.0265L12.5229 21.9574L12.9138 28.0449L27.9928 19.109Z" fill="#FB8E2F"/>
</g>
<g style="mix-blend-mode:multiply" opacity="0.4">
<path d="M10.4171 15.6744V20.7896L11.5763 21.4324H11.9749V14.7834L10.4171 15.6744Z" fill="#FB8E2F"/>
</g>
<g style="mix-blend-mode:multiply" opacity="0.4">
<path d="M22.6469 16.1371L23.5766 15.6025V12.4437L22.6469 11.9072V16.1371Z" fill="#FB8E2F"/>
</g>
<g style="mix-blend-mode:multiply" opacity="0.4">
<path d="M13.0278 21.6671L14.8884 20.5979V13.1173L13.0278 14.1808V21.6671Z" fill="#FB8E2F"/>
</g>
<g style="mix-blend-mode:multiply" opacity="0.4">
<path d="M12.9138 28.045L12.5229 21.9574L5.87683 18.2717" stroke="#FB8E2F" stroke-width="0.25" stroke-miterlimit="10" stroke-linecap="round"/>
</g>
<g style="mix-blend-mode:multiply" opacity="0.4">
<path d="M12.4942 22.0092C11.0398 21.168 7.25836 19.0765 5.87683 18.2727C7.27369 19.0085 11.0849 21.1287 12.5507 21.9076C12.5643 21.9151 12.5744 21.9277 12.5787 21.9426C12.583 21.9575 12.5812 21.9735 12.5737 21.9871C12.5662 22.0007 12.5536 22.0108 12.5387 22.0151C12.5238 22.0194 12.5078 22.0176 12.4942 22.0101V22.0092Z" fill="#FB8E2F"/>
</g>
<g style="mix-blend-mode:multiply" opacity="0.4">
<path d="M26.3181 14.0275C26.3123 13.993 12.3974 22.1825 12.588 21.9535L12.9138 28.0449L12.4568 21.9622V21.921C12.4827 21.9008 26.2903 14.0485 26.321 14.0275H26.3181Z" fill="#FB8E2F"/>
</g>
</g>
<path d="M5.87684 17.6968L4.47998 22.444L12.9138 27.47L12.5229 21.3825L5.87684 17.6968Z" fill="#FA9B3D"/>
<path d="M19.8387 9.71033L26.3172 13.4525L12.5229 21.3824L5.87683 17.6968L19.8387 9.71033Z" fill="#FFDB59"/>
<path d="M27.9928 18.5342L26.3172 13.4526L12.5229 21.3825L12.9138 27.4701L27.9928 18.5342Z" fill="#FEBD59"/>
<path d="M10.4171 15.0995V20.2146L11.5763 20.8575H11.9749V14.2085L10.4171 15.0995Z" fill="#FEEC96"/>
<path d="M22.6469 15.5623L23.5766 15.0277V11.8689L22.6469 11.3324V15.5623Z" fill="#FEEC96"/>
<path d="M13.0278 21.0923L14.8884 20.0231V12.5425L13.0278 13.6059V21.0923Z" fill="#FEEC96"/>
<path d="M12.9138 27.47L12.5229 21.3825L5.87683 17.6968" stroke="white" stroke-width="0.25" stroke-miterlimit="10" stroke-linecap="round"/>
<path d="M12.4942 21.4342C11.0398 20.593 7.25836 18.5016 5.87683 17.6978C7.27369 18.4335 11.0849 20.5537 12.5507 21.3327C12.5643 21.3402 12.5744 21.3527 12.5787 21.3677C12.583 21.3826 12.5812 21.3986 12.5737 21.4122C12.5662 21.4258 12.5536 21.4358 12.5387 21.4401C12.5238 21.4445 12.5078 21.4427 12.4942 21.4352V21.4342Z" fill="white"/>
<path d="M26.3181 13.4526C26.3123 13.4181 12.3974 21.6077 12.588 21.3787L12.9138 27.4701L12.4568 21.3873V21.3461C12.4827 21.326 26.2903 13.4737 26.321 13.4526H26.3181Z" fill="white"/>
<g style="mix-blend-mode:multiply" opacity="0.4">
<g style="mix-blend-mode:multiply" opacity="0.4">
<path d="M15.354 24.2452L13.9581 28.9925L22.392 34.0185L22.0001 27.9309L15.354 24.2452Z" fill="#FB8E2F"/>
</g>
<g style="mix-blend-mode:multiply" opacity="0.4">
<path d="M29.3169 16.2588L35.7953 20L22.0001 27.9309L15.354 24.2452L29.3169 16.2588Z" fill="#FB8E2F"/>
</g>
<g style="mix-blend-mode:multiply" opacity="0.4">
<path d="M37.471 25.0825L35.7953 20L22.0001 27.9309L22.392 34.0184L37.471 25.0825Z" fill="#FB8E2F"/>
</g>
<g style="mix-blend-mode:multiply" opacity="0.4">
<path d="M19.8953 21.648V26.7631L21.0545 27.4059H21.4521V20.757L19.8953 21.648Z" fill="#FB8E2F"/>
</g>
<g style="mix-blend-mode:multiply" opacity="0.4">
<path d="M32.125 22.1107L33.0548 21.5761V18.4174L32.125 17.8799V22.1107Z" fill="#FB8E2F"/>
</g>
<g style="mix-blend-mode:multiply" opacity="0.4">
<path d="M22.506 27.6406L24.3656 26.5714V19.0898L22.506 20.1543V27.6406Z" fill="#FB8E2F"/>
</g>
<g style="mix-blend-mode:multiply" opacity="0.4">
<path d="M22.392 34.0185L22.0001 27.9309L15.354 24.2452" stroke="#FB8E2F" stroke-width="0.25" stroke-miterlimit="10" stroke-linecap="round"/>
</g>
<g style="mix-blend-mode:multiply" opacity="0.4">
<path d="M21.9723 27.9827C20.518 27.1415 16.7365 25.05 15.354 24.2462C16.7509 24.982 20.563 27.1022 22.0288 27.8802C22.0406 27.8886 22.0489 27.9011 22.0521 27.9152C22.0553 27.9293 22.0533 27.9442 22.0463 27.9569C22.0394 27.9696 22.028 27.9793 22.0144 27.9843C22.0008 27.9892 21.9858 27.989 21.9723 27.9836V27.9827Z" fill="#FB8E2F"/>
</g>
<g style="mix-blend-mode:multiply" opacity="0.4">
<path d="M35.7953 20C35.7905 19.9655 21.8755 28.155 22.0662 27.927L22.391 34.0184L21.9349 27.9347V27.8944C21.9608 27.8743 35.7675 20.022 35.7981 20H35.7953Z" fill="#FB8E2F"/>
</g>
</g>
<path d="M15.354 23.6704L13.9581 28.4176L22.392 33.4436L22.0001 27.3561L15.354 23.6704Z" fill="#FA9B3D"/>
<path d="M29.3169 15.684L35.7953 19.4252L22.0001 27.3561L15.354 23.6704L29.3169 15.684Z" fill="#FFDB59"/>
<path d="M37.471 24.5077L35.7953 19.4252L22.0001 27.356L22.392 33.4436L37.471 24.5077Z" fill="#FEBD59"/>
<path d="M19.8953 21.073V26.1881L21.0545 26.831H21.4521V20.182L19.8953 21.073Z" fill="#FEEC96"/>
<path d="M32.125 21.5357L33.0548 21.0011V17.8424L32.125 17.3049V21.5357Z" fill="#FEEC96"/>
<path d="M22.506 27.0658L24.3656 25.9966V18.515L22.506 19.5794V27.0658Z" fill="#FEEC96"/>
<path d="M22.392 33.4436L22.0001 27.3561L15.354 23.6704" stroke="white" stroke-width="0.25" stroke-miterlimit="10" stroke-linecap="round"/>
<path d="M21.9723 27.4077C20.518 26.5665 16.7365 24.4751 15.354 23.6713C16.7509 24.4071 20.563 26.5273 22.0288 27.3052C22.0406 27.3137 22.0489 27.3261 22.0521 27.3403C22.0553 27.3544 22.0533 27.3692 22.0463 27.3819C22.0394 27.3947 22.028 27.4044 22.0144 27.4093C22.0008 27.4142 21.9858 27.414 21.9723 27.4087V27.4077Z" fill="white"/>
<path d="M35.7953 19.4252C35.7905 19.3907 21.8755 27.5802 22.0662 27.3522L22.391 33.4436L21.9349 27.3599V27.3196C21.9608 27.2995 35.7675 19.4472 35.7981 19.4252H35.7953Z" fill="white"/>
<g style="mix-blend-mode:multiply" opacity="0.4">
<g style="mix-blend-mode:multiply" opacity="0.4">
<path d="M10.8329 16.6823L9.43604 21.4295L17.8699 26.4555L17.479 20.3679L10.8329 16.6823Z" fill="#FB8E2F"/>
</g>
<g style="mix-blend-mode:multiply" opacity="0.4">
<path d="M24.7957 8.69482L31.2742 12.437L17.479 20.3679L10.8329 16.6822L24.7957 8.69482Z" fill="#FB8E2F"/>
</g>
<g style="mix-blend-mode:multiply" opacity="0.4">
<path d="M32.9499 17.5196L31.2742 12.437L17.479 20.3679L17.8699 26.4554L32.9499 17.5196Z" fill="#FB8E2F"/>
</g>
<g style="mix-blend-mode:multiply" opacity="0.4">
<path d="M15.3732 14.0848V19.2L16.5324 19.8428H16.9309V13.1938L15.3732 14.0848Z" fill="#FB8E2F"/>
</g>
<g style="mix-blend-mode:multiply" opacity="0.4">
<path d="M27.6039 14.5476L28.5327 14.013V10.8542L27.6039 10.3168V14.5476Z" fill="#FB8E2F"/>
</g>
<g style="mix-blend-mode:multiply" opacity="0.4">
<path d="M17.9849 20.0776L19.8445 19.0084V11.5269L17.9849 12.5913V20.0776Z" fill="#FB8E2F"/>
</g>
<g style="mix-blend-mode:multiply" opacity="0.4">
<path d="M17.8699 26.4555L17.479 20.3679L10.8329 16.6823" stroke="#FB8E2F" stroke-width="0.25" stroke-miterlimit="10" stroke-linecap="round"/>
</g>
<g style="mix-blend-mode:multiply" opacity="0.4">
<path d="M17.4493 20.4197C15.9949 19.5775 12.2134 17.487 10.8319 16.6832C12.2288 17.419 16.04 19.5392 17.5068 20.3172C17.5191 20.3255 17.5279 20.3381 17.5313 20.3526C17.5348 20.367 17.5327 20.3823 17.5255 20.3953C17.5183 20.4083 17.5064 20.4181 17.4923 20.4228C17.4782 20.4275 17.4628 20.4267 17.4493 20.4206V20.4197Z" fill="#FB8E2F"/>
</g>
<g style="mix-blend-mode:multiply" opacity="0.4">
<path d="M31.2742 12.437C31.2684 12.4025 17.3535 20.5921 17.5451 20.364L17.8708 26.4554L17.4148 20.3717V20.3315C17.4407 20.3113 31.2483 12.4581 31.279 12.437H31.2742Z" fill="#FB8E2F"/>
</g>
</g>
<path d="M10.8329 16.1074L9.43604 20.8546L17.8699 25.8807L17.479 19.7931L10.8329 16.1074Z" fill="#FA9B3D"/>
<path d="M24.7957 8.12L31.2742 11.8622L17.479 19.7931L10.8329 16.1074L24.7957 8.12Z" fill="#FFDB59"/>
<path d="M32.9499 16.9447L31.2742 11.8622L17.479 19.7931L17.8699 25.8806L32.9499 16.9447Z" fill="#FEBD59"/>
<path d="M15.3732 13.51V18.6251L16.5324 19.268H16.9309V12.619L15.3732 13.51Z" fill="#FEEC96"/>
<path d="M27.6039 13.9728L28.5327 13.4382V10.2794L27.6039 9.74194V13.9728Z" fill="#FEEC96"/>
<path d="M17.9849 19.5028L19.8445 18.4336V10.952L17.9849 12.0164V19.5028Z" fill="#FEEC96"/>
<path d="M17.8699 25.8807L17.479 19.7931L10.8329 16.1074" stroke="white" stroke-width="0.25" stroke-miterlimit="10" stroke-linecap="round"/>
<path d="M17.4493 19.8449C15.9949 19.0027 12.2134 16.9122 10.8319 16.1084C12.2288 16.8442 16.04 18.9644 17.5068 19.7423C17.5191 19.7506 17.5279 19.7633 17.5313 19.7778C17.5348 19.7922 17.5327 19.8075 17.5255 19.8205C17.5183 19.8335 17.5064 19.8433 17.4923 19.848C17.4782 19.8527 17.4628 19.8519 17.4493 19.8458V19.8449Z" fill="white"/>
<path d="M31.2742 11.8622C31.2684 11.8277 17.3535 20.0172 17.5451 19.7892L17.8708 25.8806L17.4148 19.7969V19.7566C17.4407 19.7365 31.2483 11.8832 31.279 11.8622H31.2742Z" fill="white"/>
</svg>

<svg xmlns="http://www.w3.org/2000/svg" width="42" height="42" fill="none"><path fill="#06061B" d="M21 42c11.598 0 21-9.402 21-21S32.598 0 21 0 0 9.402 0 21s9.402 21 21 21Z"/><g opacity=".4" style="mix-blend-mode:multiply"><path fill="#FB8E2F" d="M5.877 18.272 4.48 23.019l8.434 5.026-.391-6.088-6.646-3.685Z" opacity=".4" style="mix-blend-mode:multiply"/><path fill="#FB8E2F" d="m19.839 10.285 6.478 3.742-13.794 7.93-6.646-3.685 13.962-7.987Z" opacity=".4" style="mix-blend-mode:multiply"/><path fill="#FB8E2F" d="m27.993 19.109-1.676-5.083-13.794 7.931.39 6.088 15.08-8.936ZM10.417 15.674v5.116l1.16.642h.398v-6.649l-1.558.891Z" opacity=".4" style="mix-blend-mode:multiply"/><path fill="#FB8E2F" d="m22.647 16.137.93-.535v-3.158l-.93-.537v4.23ZM13.028 21.667l1.86-1.07v-7.48l-1.86 1.064v7.486Z" opacity=".4" style="mix-blend-mode:multiply"/><path stroke="#FB8E2F" stroke-linecap="round" stroke-miterlimit="10" stroke-width=".25" d="m12.914 28.045-.391-6.088-6.646-3.685" opacity=".4" style="mix-blend-mode:multiply"/><path fill="#FB8E2F" d="M12.494 22.01c-1.454-.842-5.236-2.934-6.617-3.737 1.397.736 5.208 2.856 6.674 3.635a.059.059 0 1 1-.057.102Z" opacity=".4" style="mix-blend-mode:multiply"/><path fill="#FB8E2F" d="M26.318 14.027c-.006-.034-13.92 8.156-13.73 7.926l.326 6.092-.457-6.083v-.041c.026-.02 13.833-7.872 13.864-7.893h-.003Z" opacity=".4" style="mix-blend-mode:multiply"/></g><path fill="#FA9B3D" d="M5.877 17.697 4.48 22.444l8.434 5.026-.391-6.087-6.646-3.686Z"/><path fill="#FFDB59" d="m19.839 9.71 6.478 3.742-13.794 7.93-6.646-3.685L19.839 9.71Z"/><path fill="#FEBD59" d="m27.993 18.534-1.676-5.081-13.794 7.93.39 6.087 15.08-8.936Z"/><path fill="#FEEC96" d="M10.417 15.1v5.115l1.16.643h.398v-6.65l-1.558.892ZM22.647 15.562l.93-.534v-3.16l-.93-.536v4.23ZM13.028 21.092l1.86-1.069v-7.48l-1.86 1.063v7.486Z"/><path stroke="#fff" stroke-linecap="round" stroke-miterlimit="10" stroke-width=".25" d="m12.914 27.47-.391-6.087-6.646-3.686"/><path fill="#fff" d="M12.494 21.434c-1.454-.841-5.236-2.932-6.617-3.736 1.397.735 5.208 2.856 6.674 3.635a.058.058 0 0 1-.012.107.058.058 0 0 1-.045-.005Z"/><path fill="#fff" d="M26.318 13.453c-.006-.035-13.92 8.155-13.73 7.926l.326 6.091-.457-6.083v-.04c.026-.021 13.833-7.873 13.864-7.894h-.003Z"/><g opacity=".4" style="mix-blend-mode:multiply"><path fill="#FB8E2F" d="m15.354 24.245-1.396 4.747 8.434 5.027L22 27.93l-6.646-3.686Z" opacity=".4" style="mix-blend-mode:multiply"/><path fill="#FB8E2F" d="M29.317 16.259 35.795 20 22 27.93l-6.646-3.685 13.963-7.986Z" opacity=".4" style="mix-blend-mode:multiply"/><path fill="#FB8E2F" d="M37.471 25.082 35.795 20 22 27.93l.392 6.088 15.079-8.936ZM19.895 21.648v5.115l1.16.643h.397v-6.649l-1.557.891Z" opacity=".4" style="mix-blend-mode:multiply"/><path fill="#FB8E2F" d="m32.125 22.11.93-.534v-3.159l-.93-.537v4.23ZM22.506 27.64l1.86-1.069V19.09l-1.86 1.064v7.487Z" opacity=".4" style="mix-blend-mode:multiply"/><path stroke="#FB8E2F" stroke-linecap="round" stroke-miterlimit="10" stroke-width=".25" d="M22.392 34.019 22 27.93l-6.646-3.686" opacity=".4" style="mix-blend-mode:multiply"/><path fill="#FB8E2F" d="M21.972 27.983c-1.454-.841-5.236-2.933-6.618-3.737 1.397.736 5.209 2.856 6.675 3.634a.06.06 0 0 1 .017.077.06.06 0 0 1-.074.027v-.001Z" opacity=".4" style="mix-blend-mode:multiply"/><path fill="#FB8E2F" d="M35.795 20c-.005-.035-13.92 8.155-13.729 7.927l.325 6.091-.456-6.083v-.04c.026-.02 13.832-7.873 13.863-7.895h-.003Z" opacity=".4" style="mix-blend-mode:multiply"/></g><path fill="#FA9B3D" d="m15.354 23.67-1.396 4.748 8.434 5.026L22 27.356l-6.646-3.686Z"/><path fill="#FFDB59" d="m29.317 15.684 6.478 3.741L22 27.356l-6.646-3.686 13.963-7.986Z"/><path fill="#FEBD59" d="m37.471 24.508-1.676-5.083L22 27.356l.392 6.088 15.079-8.936Z"/><path fill="#FEEC96" d="M19.895 21.073v5.115l1.16.643h.397v-6.649l-1.557.891ZM32.125 21.536l.93-.535v-3.159l-.93-.537v4.23ZM22.506 27.066l1.86-1.07v-7.481l-1.86 1.064v7.487Z"/><path stroke="#fff" stroke-linecap="round" stroke-miterlimit="10" stroke-width=".25" d="M22.392 33.444 22 27.356l-6.646-3.686"/><path fill="#fff" d="M21.972 27.408c-1.454-.841-5.236-2.933-6.618-3.737 1.397.736 5.209 2.856 6.675 3.634a.06.06 0 0 1-.057.104v-.001Z"/><path fill="#fff" d="M35.795 19.425c-.005-.034-13.92 8.155-13.729 7.927l.325 6.092-.456-6.084v-.04c.026-.02 13.832-7.873 13.863-7.895h-.003Z"/><g opacity=".4" style="mix-blend-mode:multiply"><path fill="#FB8E2F" d="M10.833 16.682 9.436 21.43l8.434 5.026-.391-6.088-6.646-3.686Z" opacity=".4" style="mix-blend-mode:multiply"/><path fill="#FB8E2F" d="m24.796 8.695 6.478 3.742-13.795 7.93-6.646-3.685 13.963-7.987ZM32.95 17.52l-1.676-5.083-13.795 7.93.39 6.088 15.08-8.935Z" opacity=".4" style="mix-blend-mode:multiply"/><path fill="#FB8E2F" d="M15.373 14.085V19.2l1.16.643h.398v-6.65l-1.558.892ZM27.604 14.548l.929-.535v-3.159l-.93-.537v4.23ZM17.985 20.078l1.86-1.07v-7.481l-1.86 1.064v7.487Z" opacity=".4" style="mix-blend-mode:multiply"/><path stroke="#FB8E2F" stroke-linecap="round" stroke-miterlimit="10" stroke-width=".25" d="m17.87 26.456-.391-6.088-6.646-3.686" opacity=".4" style="mix-blend-mode:multiply"/><path fill="#FB8E2F" d="M17.45 20.42c-1.455-.843-5.237-2.933-6.618-3.737 1.397.736 5.208 2.856 6.675 3.634a.059.059 0 0 1 .018.078.06.06 0 0 1-.076.026v-.001Z" opacity=".4" style="mix-blend-mode:multiply"/><path fill="#FB8E2F" d="M31.274 12.437c-.006-.034-13.92 8.155-13.729 7.927l.326 6.091-.456-6.083v-.04c.026-.02 13.833-7.874 13.864-7.895h-.005Z" opacity=".4" style="mix-blend-mode:multiply"/></g><path fill="#FA9B3D" d="m10.833 16.107-1.397 4.748 8.434 5.026-.391-6.088-6.646-3.686Z"/><path fill="#FFDB59" d="m24.796 8.12 6.478 3.742-13.795 7.931-6.646-3.686L24.796 8.12Z"/><path fill="#FEBD59" d="m32.95 16.945-1.676-5.083-13.795 7.931.39 6.088 15.08-8.936Z"/><path fill="#FEEC96" d="M15.373 13.51v5.115l1.16.643h.398v-6.649l-1.558.891ZM27.604 13.973l.929-.535V10.28l-.93-.537v4.23ZM17.985 19.503l1.86-1.07v-7.481l-1.86 1.064v7.487Z"/><path stroke="#fff" stroke-linecap="round" stroke-miterlimit="10" stroke-width=".25" d="m17.87 25.88-.391-6.087-6.646-3.686"/><path fill="#fff" d="M17.45 19.845c-1.455-.842-5.237-2.933-6.618-3.737 1.397.736 5.208 2.856 6.675 3.634a.06.06 0 0 1 .018.078.06.06 0 0 1-.076.026v-.001Z"/><path fill="#fff" d="M31.274 11.862c-.006-.034-13.92 8.155-13.729 7.927l.326 6.092-.456-6.084v-.04c.026-.02 13.833-7.874 13.864-7.895h-.005Z"/></svg>
